keyboard-f12.svg

<svg fill="currentColor" viewBox="0 0 24 24"><path d="M2 7h6v2H4v2h3v2H4v4H2zm14 0h4a2 2 0 0 1 2 2v2c0 1.11-.89 2-2 2h-2v2h4v2h-6v-4c0-1.1.9-2 2-2h2V9h-4zm-6 0h4v10h-2V9h-2z"/></svg>

<svg  viewBox="0 0 24 24" fill="currentColor"><path  d="M2 7H8V9H4V11H7V13H4V17H2V7M16 7H20C21.11 7 22 7.9 22 9V11C22 12.11 21.11 13 20 13H18V15H22V17H16V13C16 11.9 16.9 11 18 11H20V9H16V7M10 7H14V17H12V9H10V7Z"/></svg>
